X:109
T:Solomon's Jig. (p)1652.PLFD.109
T:Green Goose Fair. (p)1652.PLFD.109
M:6/4
L:1/4
Q:3/4=80
S:Playford, Dancing Master,2nd Ed.,1652
O:England
H:1652.
Z:Chris Partington.
K:C
G|G>AGA2B|c2Cc>dc|B2AG2F|E>FDCgf|
e>dccB2|c3-c2:||:c|c>dcB>cB|A2GA2G|F>GFE>FE|
D2CD2C|d2ef>ed|e>dcg>fe|d2ccB2|c3-c2:|
